Breeze Round Light/actions/16/edit-image-face-detect.svg

<svg xmlns="http://www.w3.org/2000/svg" viewBox="0 0 16 16">
  <defs id="defs3051">
<style type="text/css" id="current-color-scheme">.ColorScheme-Text {color:#fcfcfc;}</style>
  </defs>
 <path style="fill:currentColor;fill-opacity:1;stroke:none" 
     d="M 4,2 C 4,2 2,2 2,4 2,6 2,5 2,5 H 3 C 3,5 3,5 3,4 3,3 4,3 4,3 H 5 V 2 Z m 2,0 v 1 h 4 V 2 Z m 5,0 v 1 h 1 c 0,0 1,0 1,1 0,1 0,1 0,1 h 1 C 14,5 14,6 14,4 14,2 12,2 12,2 Z M 6,5 C 5.4477153,5 5,5.4477153 5,6 5,6.5522847 5.4477153,7 6,7 6.5522847,7 7,6.5522847 7,6 7,5.4477153 6.5522847,5 6,5 Z m 4,0 C 9.4477153,5 9,5.4477153 9,6 9,6.5522847 9.4477153,7 10,7 10.552285,7 11,6.5522847 11,6 11,5.4477153 10.552285,5 10,5 Z M 2,6 v 4 H 3 V 6 Z m 11,0 v 4 h 1 V 6 Z M 4,9 c 0,1.656854 1.790861,3 4,3 2.209139,0 4,-1.343146 4,-3 H 11 C 11,10.104569 9.6568542,11 8,11 6.3431458,11 5,10.104569 5,9 Z m -2,2 c 0,0 0,-1 0,1 0,2 2,2 2,2 H 5 V 13 H 4 c 0,0 -1,0 -1,-1 0,-1 0,-1 0,-1 z m 11,0 c 0,0 0,0 0,1 0,1 -1,1 -1,1 h -1 v 1 h 1 c 0,0 2,0 2,-2 0,-2 0,-1 0,-1 z m -7,2 v 1 h 4 v -1 z"
     class="ColorScheme-Text"
     />
</svg>

<svg xmlns="http://www.w3.org/2000/svg" viewBox="0 0 16 16">
  <defs id="defs3051">
    <style type="text/css" id="current-color-scheme">
      .ColorScheme-Text {
        color:#232629;
      }
      </style>
  </defs>
 <path style="fill:currentColor;fill-opacity:1;stroke:none" 
     d="M 2 2 L 2 5 L 3 5 L 3 3 L 5 3 L 5 2 L 2 2 z M 6 2 L 6 3 L 10 3 L 10 2 L 6 2 z M 11 2 L 11 3 L 13 3 L 13 5 L 14 5 L 14 2 L 11 2 z M 6 5 A 1 1 0 0 0 5 6 A 1 1 0 0 0 6 7 A 1 1 0 0 0 7 6 A 1 1 0 0 0 6 5 z M 10 5 A 1 1 0 0 0 9 6 A 1 1 0 0 0 10 7 A 1 1 0 0 0 11 6 A 1 1 0 0 0 10 5 z M 2 6 L 2 10 L 3 10 L 3 6 L 2 6 z M 13 6 L 13 10 L 14 10 L 14 6 L 13 6 z M 4 9 A 4 3 0 0 0 8 12 A 4 3 0 0 0 12 9 L 11 9 A 3 2 0 0 1 8 11 A 3 2 0 0 1 5 9 L 4 9 z M 2 11 L 2 14 L 5 14 L 5 13 L 3 13 L 3 11 L 2 11 z M 13 11 L 13 13 L 11 13 L 11 14 L 14 14 L 14 11 L 13 11 z M 6 13 L 6 14 L 10 14 L 10 13 L 6 13 z "
     class="ColorScheme-Text"
     />
</svg>
